src/assets/slide.svg

<svg fill="none" height="24" viewBox="0 0 24 24" width="24" xmlns="http://www.w3.org/2000/svg"><path d="m22.7427 1.92h-10.1465v-1.440001c0-.127304-.0485-.249393-.135-.339411-.0865-.0900169-.2038-.140588-.3262-.140588-.1223 0-.2396.0505711-.3261.140588-.0865.090018-.1351.212107-.1351.339411v1.440001h-10.14641c-.24464 0-.47926.10114-.652243.28117-.172985.18004-.270167.42422-.270167.67882v1.44c0 .25461.097182.49879.270167.67882.172983.18004.407603.28118.652243.28118v12.00001c0 .3819.14577.7481.40524 1.0182.25948.27.61141.4218.97836.4218h8.76281v.7156l-4.88317 3.696c-.09896.0749-.16529.1876-.1844.3133-.01912.1258.01055.2543.08247.3573s.18021.172.30104.1919.24431-.011.34326-.0858l4.3408-3.2856v2.8972c0 .1273.0486.2494.1351.3395.0865.09.2038.1405.3261.1405.1224 0 .2397-.0505.3262-.1405.0865-.0901.135-.2122.135-.3395v-2.8972l4.3409 3.2856c.049.037.1045.0637.1634.0784s.12.0173.1798.0074c.0599-.0098.1172-.0319.1689-.0648s.0966-.0761.1322-.1271.0612-.1088.0754-.1701c.0141-.0613.0165-.1249.0071-.1872-.0095-.0622-.0307-.1219-.0623-.1757s-.0731-.1005-.1221-.1376l-4.8833-3.696v-.7156h8.7629c.3669 0 .7189-.1518.9783-.4218.2595-.2701.4053-.6363.4053-1.0182v-12.00001c.2446 0 .4792-.10114.6522-.28118.173-.18003.2702-.42421.2702-.67882v-1.44c0-.2546-.0972-.49878-.2702-.67882-.173-.18003-.4076-.28117-.6522-.28117zm-.9224 15.36c0 .1273-.0486.2494-.1351.3394s-.2038.1406-.3261.1406h-18.44811c-.12232 0-.23962-.0506-.32612-.1406-.08649-.09-.13508-.2121-.13508-.3394v-12.00001h19.37051zm.9224-12.96001h-21.21531v-1.44h21.21531z" fill="#000"/></svg>

<svg width="24" height="24" viewBox="0 0 24 24" fill="none" xmlns="http://www.w3.org/2000/svg">
<path d="M22.7427 1.92H12.5962V0.479999C12.5962 0.352695 12.5477 0.230606 12.4612 0.140588C12.3747 0.0505711 12.2574 0 12.135 0C12.0127 0 11.8954 0.0505711 11.8089 0.140588C11.7224 0.230606 11.6738 0.352695 11.6738 0.479999V1.92H1.52739C1.28275 1.92 1.04813 2.02114 0.875147 2.20117C0.702162 2.38121 0.60498 2.62539 0.60498 2.87999V4.31999C0.60498 4.5746 0.702162 4.81878 0.875147 4.99881C1.04813 5.17885 1.28275 5.27999 1.52739 5.27999V17.28C1.52739 17.6619 1.67316 18.0281 1.93263 18.2982C2.19211 18.5682 2.54404 18.72 2.91099 18.72H11.6738V19.4356L6.79063 23.1316C6.69167 23.2065 6.62534 23.3192 6.60623 23.4449C6.58711 23.5707 6.61678 23.6992 6.6887 23.8022C6.76062 23.9052 6.86891 23.9742 6.98974 23.9941C7.11057 24.014 7.23405 23.9831 7.333 23.9083L11.6738 20.6227V23.5199C11.6738 23.6472 11.7224 23.7693 11.8089 23.8594C11.8954 23.9494 12.0127 23.9999 12.135 23.9999C12.2574 23.9999 12.3747 23.9494 12.4612 23.8594C12.5477 23.7693 12.5962 23.6472 12.5962 23.5199V20.6227L16.9371 23.9083C16.9861 23.9453 17.0416 23.972 17.1005 23.9867C17.1594 24.0014 17.2205 24.004 17.2803 23.9941C17.3402 23.9843 17.3975 23.9622 17.4492 23.9293C17.5009 23.8964 17.5458 23.8532 17.5814 23.8022C17.617 23.7512 17.6426 23.6934 17.6568 23.6321C17.6709 23.5708 17.6733 23.5072 17.6639 23.4449C17.6544 23.3827 17.6332 23.323 17.6016 23.2692C17.57 23.2154 17.5285 23.1687 17.4795 23.1316L12.5962 19.4356V18.72H21.3591C21.726 18.72 22.078 18.5682 22.3374 18.2982C22.5969 18.0281 22.7427 17.6619 22.7427 17.28V5.27999C22.9873 5.27999 23.2219 5.17885 23.3949 4.99881C23.5679 4.81878 23.6651 4.5746 23.6651 4.31999V2.87999C23.6651 2.62539 23.5679 2.38121 23.3949 2.20117C23.2219 2.02114 22.9873 1.92 22.7427 1.92V1.92ZM21.8203 17.28C21.8203 17.4073 21.7717 17.5294 21.6852 17.6194C21.5987 17.7094 21.4814 17.76 21.3591 17.76H2.91099C2.78867 17.76 2.67137 17.7094 2.58487 17.6194C2.49838 17.5294 2.44979 17.4073 2.44979 17.28V5.27999H21.8203V17.28ZM22.7427 4.31999H1.52739V2.87999H22.7427V4.31999Z" fill="black"/>
</svg>
